X:063 
T:Francie Donnellan's Reel 
F:file ID: cre.5/063fran_d
B:CRE5.118 (Ril Phroinsias UÃÂÃÂÃÂÃÂ­ DhomhnallÃÂÃÂÃÂÃÂ¡in)
Q:180
M:4/4
R:reel
K:C
"D dorian"
DEFA d2cA|GEED EFGB|Adde dcAB|(3cBA GE EDCE|
DEFA d2cA|GEED EFGB|Adde dcAB|(3cBA GE ED D2||
aged c2ed|c3d egg2|aged c2ed|(3cBA GE ED D2|
ed (3efg agec|dcAB (3cBA Gc|AFGE FGAB|(3cBA GE ED D2-|D8||

%%%

